X: 2
M:6/8
L:1/8
Q:110
K:F
f|ddB ccG|F2d _e2g|ffd fga|bfd c2f|ddB ccG|F2d _e2g|ffd fga|bfd c2:|

